svg/single/alipay.svg

<svg height="471" viewBox="0 0 750 471" width="750" xmlns="http://www.w3.org/2000/svg"><g fill="none" fill-rule="evenodd"><rect fill="none" height="471" rx="40" width="750"/><path d="m99.460353 243.349396c-4.8010666.599983-13.2029333 2.399931-18.004 6.59981-14.4032 12.599635-6.0013333 34.798994 23.4052 34.798994 16.803733 0 33.607467-10.799688 46.8104-27.599203-19.204267-8.999739-34.807733-15.599549-52.2116-13.799601z" fill="#2ba6df"/><path d="m207.034 258.796653c27.006 8.99974 33.007333 9.599722 33.007333 9.599722v-95.997225c0-16.199532-13.202933-29.39915-30.006666-29.39915h-126.0280003c-16.2036 0-30.0066667 13.199618-30.0066667 29.39915v125.996358c0 16.199532 13.2029333 29.39915 30.0066667 29.39915h126.0280003c16.2036 0 30.006666-13.199618 30.006666-29.39915v-1.199965s-48.010666-19.799428-72.616133-31.799081c-16.2036 19.799428-37.208267 32.399063-59.4132 32.399063-37.2082667 0-49.8110667-32.399063-31.8070667-53.398456 3.6008-4.799861 10.2022667-8.99974 20.4045334-11.39967 15.6034663-3.599896 40.8090663 2.39993 64.2142663 10.199705 4.200934-7.799775 7.801734-16.199532 10.202267-25.199272h-72.6161333v-7.199792h37.2082663v-14.399584h-45.610133v-7.199791h45.610133v-18.599463s0-2.999913 3.000667-2.999913h18.004v22.199358h45.01v6.599809h-45.01v13.199619h36.608133c-3.6008 14.399584-9.002 27.599202-15.603466 38.998873 12.002666 4.199878 22.204933 7.799774 29.406533 10.199705z" fill="#2ba6df"/><path d="m325.688933 186.612532 39.6088 85.79752h-21.004666l-10.8024-22.799341h-32.4072l-10.8024 22.799341h-13.803067l40.208933-83.397589s1.200267-2.399931 3.6008-2.399931zm-21.004666 55.198405h25.2056l-12.6028-26.99922zm87.448 31.281854h-19.204267v-81.597641c0-2.399931 1.200267-3.599896 4.200933-3.599896h15.003334zm36.008-.558604h-19.204267v-61.798214c0-2.399931 1.200267-3.599896 4.200933-3.599896h15.003334zm23.481667-64.115388h12.6028v5.999826c2.400533-1.799948 4.801067-3.599896 7.801733-4.199878 3.000667-1.199966 6.001334-1.799948 10.202267-1.799948s7.801733.599982 10.8024 2.39993c3.6008 1.799948 6.001333 3.599896 8.401867 6.59981 2.400533 2.999913 4.200933 5.999826 5.4012 9.599722 1.200266 3.599896 1.8004 7.199792 1.8004 11.399671 0 5.399843-.600134 10.199705-2.400534 14.399583-1.8004 4.199879-3.6008 8.399757-6.601466 11.399671-3.000667 2.999913-6.001334 5.999826-10.202267 7.799774s-8.401867 2.399931-13.202933 2.399931h-6.601467c-1.8004 0-3.6008-.599983-5.4012-1.199965v21.599375h-19.204267v-78.597728c-.600133-7.799774 2.400534-7.799774 6.601467-7.799774zm12.6028 46.798647c0 1.799948 0 2.999913.600133 4.199879.600134 1.199965 1.200267 2.39993 2.400534 3.599895 1.200266 1.199966 2.400533 1.799948 3.6008 2.399931 1.200266.599983 3.000666.599983 4.801066.599983s3.000667-.599983 4.801067-1.799948c1.200267-1.199966 3.000667-2.399931 3.6008-4.799861.600133-2.399931 1.8004-4.199879 2.400533-7.199792.600134-2.999914 1.200267-5.399844 1.200267-8.99974 0-4.199879 0-7.799775-.600133-10.799688-.600134-2.999913-1.200267-5.399844-2.400534-7.799775-1.200266-1.799948-2.400533-3.599896-3.6008-4.799861-1.200266-1.199965-3.000666-1.799948-4.801066-1.799948-1.200267 0-2.400534 0-3.6008.599983-1.200267.599982-2.400534 1.199965-3.000667 1.799948-1.200267.599982-1.8004 1.799948-3.000667 2.39993-1.200266 1.199966-1.8004 1.799948-2.400533 2.999914zm81.027266-46.798647c4.801067 0 8.401867.599982 12.002667 1.199965 3.000666.599983 6.001333 1.799948 8.401866 3.599896 2.400534 1.799948 3.6008 3.599896 4.801067 5.399844 1.200267 2.39993 1.8004 4.799861 1.8004 7.199792v47.39863h-19.204267v-4.799862c-1.200266 1.199966-2.400533 1.799948-3.000666 2.399931-1.200267.599983-2.400534 1.199965-3.6008 1.799948-1.200267.599983-2.400534 1.199965-4.200934 1.199965-1.8004.599983-3.6008.599983-5.4012.599983-3.000666 0-5.4012-.599983-7.801733-1.199965-2.400533-.599983-4.200933-1.799948-6.001333-3.599896-1.8004-1.199966-3.000667-2.999914-3.6008-5.399844-.600134-1.799948-1.200267-4.199879-1.200267-6.599809 0-2.399931.600133-4.799862 1.200267-6.59981.600133-1.799948 2.400533-3.599896 3.6008-5.399844 1.200266-1.799948 3.6008-2.999913 5.4012-4.199878 2.400533-1.199966 4.200933-2.399931 7.2016-3.599896 2.400533-1.199965 4.801066-1.799948 7.801733-2.999913 2.400533-.599983 5.4012-1.799948 7.801733-2.399931l2.400534-.599983v-6.599809c0-1.799948 0-3.599896-.600134-5.399844-.600133-1.199965-1.200266-2.39993-1.8004-3.599896-.600133-.599982-1.8004-1.799948-2.400533-1.799948-1.200267-.599982-2.400533-.599982-3.6008-.599982 0 0-10.202267 0-19.204267 7.799774l-4.200933-6.599809c-1.8004 1.199965 9.002-6.599809 23.4052-6.599809zm6.601467 31.79908c-1.8004.599983-3.6008 1.799948-5.4012 2.999914-1.8004 1.199965-3.6008 2.39993-5.4012 3.599896-1.8004 1.199965-3.000667 2.39993-3.6008 4.199878-1.200267 1.199966-1.200267 2.999914-1.200267 4.199879s0 2.399931.600133 3.599896c.600134 1.199965.600134 1.799948 1.200267 2.999913s1.200267 1.199965 1.8004 1.799948 1.200267.599983 2.400533.599983c1.8004 0 3.000667-.599983 4.801067-1.199966 1.8004-1.199965 3.6008-2.39993 5.4012-3.599895v-19.199446zm46.5532 53.99844h-12.6028l-.600134-11.399671s15.603467.599983 20.404534-5.399844c1.8004-2.39993 3.000666-8.99974 3.000666-8.99974l-31.206933-59.998265h21.004667l19.8044 38.998872 17.403866-38.998872h13.803067l-31.807067 70.797953c-1.200266 2.399931-6.001333 14.999567-19.204266 14.999567z" fill="#3f3a39"/><ellipse cx="418.602" cy="189.5" fill="#2ba6df" rx="9.602" ry="8.5"/><g fill="#3f3a39"><path d="m668.879 158.31h-6.601v-1.2h14.403v1.2h-6.601v18.599h-1.801v-18.599z"/><path d="m679.596133 157.109937h2.400534l4.200933 11.39967 1.8004 4.199879c.600133-1.199965 1.200267-2.999913 1.8004-4.199879l4.200933-11.39967h2.400534v20.39941h-2.400534v-12.599635-5.399844l-1.8004 4.799861-4.200933 11.999653h-1.200267l-4.200933-11.999653-1.8004-4.799861v5.399844 12.599635h-1.8004v-20.39941z"/></g></g></svg>

<svg xmlns="http://www.w3.org/2000/svg" width="750" height="471" viewBox="0 0 750 471">
  <g fill="none" fill-rule="evenodd">
    <rect width="750" height="471" fill="none" rx="40"/>
    <path fill="#2BA6DF" d="M99.460353,243.349396 C94.6592864,243.949379 86.2574197,245.749327 81.456353,249.949206 C67.053153,262.548841 75.4550197,284.7482 104.861553,284.7482 C121.665286,284.7482 138.46902,273.948512 151.671953,257.148997 C132.467686,248.149258 116.86422,241.549448 99.460353,243.349396 L99.460353,243.349396 Z"/>
    <path fill="#2BA6DF" d="M207.034,258.796653 C234.04,267.796393 240.041333,268.396375 240.041333,268.396375 L240.041333,172.39915 C240.041333,156.199618 226.8384,143 210.034667,143 L84.0066667,143 C67.8030667,143 54,156.199618 54,172.39915 L54,298.395508 C54,314.59504 67.2029333,327.794658 84.0066667,327.794658 L210.034667,327.794658 C226.238267,327.794658 240.041333,314.59504 240.041333,298.395508 L240.041333,297.195543 C240.041333,297.195543 192.030667,277.396115 167.4252,265.396462 C151.2216,285.19589 130.216933,297.795525 108.012,297.795525 C70.8037333,297.795525 58.2009333,265.396462 76.2049333,244.397069 C79.8057333,239.597208 86.4072,235.397329 96.6094667,232.997399 C112.212933,229.397503 137.418533,235.397329 160.823733,243.197104 C165.024667,235.397329 168.625467,226.997572 171.026,217.997832 L98.4098667,217.997832 L98.4098667,210.79804 L135.618133,210.79804 L135.618133,196.398456 L90.008,196.398456 L90.008,189.198665 L135.618133,189.198665 L135.618133,170.599202 C135.618133,170.599202 135.618133,167.599289 138.6188,167.599289 L156.6228,167.599289 L156.6228,189.798647 L201.6328,189.798647 L201.6328,196.398456 L156.6228,196.398456 L156.6228,209.598075 L193.230933,209.598075 C189.630133,223.997659 184.228933,237.197277 177.627467,248.596948 C189.630133,252.796826 199.8324,256.396722 207.034,258.796653 L207.034,258.796653 Z"/>
    <path fill="#3F3A39" d="M325.688933 186.612532L365.297733 272.410052 344.293067 272.410052 333.490667 249.610711 301.083467 249.610711 290.281067 272.410052 276.478 272.410052 316.686933 189.012463C316.686933 189.012463 317.8872 186.612532 320.287733 186.612532 322.088133 186.612532 325.688933 186.612532 325.688933 186.612532L325.688933 186.612532zM304.684267 241.810937L329.889867 241.810937 317.287067 214.811717 304.684267 241.810937 304.684267 241.810937zM392.132267 273.092791L372.928 273.092791 372.928 191.49515C372.928 189.095219 374.128267 187.895254 377.128933 187.895254L392.132267 187.895254 392.132267 273.092791 392.132267 273.092791zM428.140267 272.534187L408.936 272.534187 408.936 210.735973C408.936 208.336042 410.136267 207.136077 413.136933 207.136077L428.140267 207.136077 428.140267 272.534187 428.140267 272.534187zM451.621934 208.418799L464.224734 208.418799 464.224734 214.418625C466.625267 212.618677 469.025801 210.818729 472.026467 210.218747 475.027134 209.018781 478.027801 208.418799 482.228734 208.418799 486.429667 208.418799 490.030467 209.018781 493.031134 210.818729 496.631934 212.618677 499.032467 214.418625 501.433001 217.418539 503.833534 220.418452 505.633934 223.418365 506.834201 227.018261 508.034467 230.618157 508.634601 234.218053 508.634601 238.417932 508.634601 243.817775 508.034467 248.617637 506.234067 252.817515 504.433667 257.017394 502.633267 261.217272 499.632601 264.217186 496.631934 267.217099 493.631267 270.217012 489.430334 272.01696 485.229401 273.816908 481.028467 274.416891 476.227401 274.416891L469.625934 274.416891C467.825534 274.416891 466.025134 273.816908 464.224734 273.216926L464.224734 294.816301 445.020467 294.816301 445.020467 216.218573C444.420334 208.418799 447.421001 208.418799 451.621934 208.418799L451.621934 208.418799zM464.224734 255.217446C464.224734 257.017394 464.224734 258.217359 464.824867 259.417325 465.425001 260.61729 466.025134 261.817255 467.225401 263.01722 468.425667 264.217186 469.625934 264.817168 470.826201 265.417151 472.026467 266.017134 473.826867 266.017134 475.627267 266.017134 477.427667 266.017134 478.627934 265.417151 480.428334 264.217186 481.628601 263.01722 483.429001 261.817255 484.029134 259.417325 484.629267 257.017394 485.829534 255.217446 486.429667 252.217533 487.029801 249.217619 487.629934 246.817689 487.629934 243.217793 487.629934 239.017914 487.629934 235.418018 487.029801 232.418105 486.429667 229.418192 485.829534 227.018261 484.629267 224.61833 483.429001 222.818382 482.228734 221.018434 481.028467 219.818469 479.828201 218.618504 478.027801 218.018521 476.227401 218.018521 475.027134 218.018521 473.826867 218.018521 472.626601 218.618504 471.426334 219.218486 470.226067 219.818469 469.625934 220.418452 468.425667 221.018434 467.825534 222.2184 466.625267 222.818382 465.425001 224.018348 464.824867 224.61833 464.224734 225.818296L464.224734 255.217446 464.224734 255.217446zM545.252 208.418799C550.053067 208.418799 553.653867 209.018781 557.254667 209.618764 560.255333 210.218747 563.256 211.418712 565.656533 213.21866 568.057067 215.018608 569.257333 216.818556 570.4576 218.618504 571.657867 221.018434 572.258 223.418365 572.258 225.818296L572.258 273.216926 553.053733 273.216926 553.053733 268.417064C551.853467 269.61703 550.6532 270.217012 550.053067 270.816995 548.8528 271.416978 547.652533 272.01696 546.452267 272.616943 545.252 273.216926 544.051733 273.816908 542.251333 273.816908 540.450933 274.416891 538.650533 274.416891 536.850133 274.416891 533.849467 274.416891 531.448933 273.816908 529.0484 273.216926 526.647867 272.616943 524.847467 271.416978 523.047067 269.61703 521.246667 268.417064 520.0464 266.617116 519.446267 264.217186 518.846133 262.417238 518.246 260.017307 518.246 257.617377 518.246 255.217446 518.846133 252.817515 519.446267 251.017567 520.0464 249.217619 521.8468 247.417671 523.047067 245.617723 524.247333 243.817775 526.647867 242.61781 528.448267 241.417845 530.8488 240.217879 532.6492 239.017914 535.649867 237.817949 538.0504 236.617984 540.450933 236.018001 543.4516 234.818036 545.852133 234.218053 548.8528 233.018088 551.253333 232.418105L553.653867 231.818122 553.653867 225.218313C553.653867 223.418365 553.653867 221.618417 553.053733 219.818469 552.4536 218.618504 551.853467 217.418539 551.253333 216.218573 550.6532 215.618591 549.452933 214.418625 548.8528 214.418625 547.652533 213.818643 546.452267 213.818643 545.252 213.818643 545.252 213.818643 535.049733 213.818643 526.047733 221.618417L521.8468 215.018608C520.0464 216.218573 530.8488 208.418799 545.252 208.418799L545.252 208.418799zM551.853467 240.217879C550.053067 240.817862 548.252667 242.017827 546.452267 243.217793 544.651867 244.417758 542.851467 245.617723 541.051067 246.817689 539.250667 248.017654 538.0504 249.217619 537.450267 251.017567 536.25 252.217533 536.25 254.017481 536.25 255.217446 536.25 256.417411 536.25 257.617377 536.850133 258.817342 537.450267 260.017307 537.450267 260.61729 538.0504 261.817255 538.650533 263.01722 539.250667 263.01722 539.8508 263.617203 540.450933 264.217186 541.051067 264.217186 542.251333 264.217186 544.051733 264.217186 545.252 263.617203 547.0524 263.01722 548.8528 261.817255 550.6532 260.61729 552.4536 259.417325L552.4536 240.217879 551.853467 240.217879zM598.406667 294.216319L585.803867 294.216319 585.203733 282.816648C585.203733 282.816648 600.8072 283.416631 605.608267 277.416804 607.408667 275.016874 608.608933 268.417064 608.608933 268.417064L577.402 208.418799 598.406667 208.418799 618.211067 247.417671 635.614933 208.418799 649.418 208.418799 617.610933 279.216752C616.410667 281.616683 611.6096 294.216319 598.406667 294.216319L598.406667 294.216319z"/>
    <ellipse cx="418.602" cy="189.5" fill="#2BA6DF" rx="9.602" ry="8.5"/>
    <path fill="#3F3A39" d="M668.879 158.31L662.278 158.31 662.278 157.11 676.681 157.11 676.681 158.31 670.08 158.31 670.08 176.909 668.279 176.909 668.279 158.31z"/>
    <path fill="#3F3A39" d="M679.596133,157.109937 L681.996667,157.109937 L686.1976,168.509607 L687.998,172.709486 L687.998,172.709486 C688.598133,171.509521 689.198267,169.709573 689.7984,168.509607 L693.999333,157.109937 L696.399867,157.109937 L696.399867,177.509347 L693.999333,177.509347 L693.999333,164.909712 L693.999333,159.509868 L693.999333,159.509868 L692.198933,164.309729 L687.998,176.309382 L686.797733,176.309382 L682.5968,164.309729 L680.7964,159.509868 L680.7964,159.509868 L680.7964,164.909712 L680.7964,177.509347 L678.996,177.509347 L678.996,157.109937 L679.596133,157.109937 Z"/>
  </g>
</svg>
